X:14439
T:Romeo's First Change
C:Andy De Jarlis
M:6/8
L:1/8
K:D
fg|a2 ^g a2 b|afd Adf|g2 f g2 b|afd Adf|!
a2 ^g a2 b|afd Adf|gec ABc|d4 z:|!
|:B|AFA dcB|ABA [F2 A2] [F A]|GEC A,CE|DFB A2 A|!
DFA dcB|ABA [F2 A2] [F A]|GFG ABc|d4:|!
